X: 28662
T: Musical Priest, The
R: reel
M: 4/4
K: Bminor
BA|:FBBA B2AB|cBAc ecBA|FBBA B2 AB|1 cBAF BcBA:|2 cBAF Bcec||
|:d2dc dfed|cA eA fAec|dcBc defg|1 afec dBBc:|2 afec dBB2||
bBdB bfdB|cBAB ceeB|bBdB bfdB|cBAB cBB2|
bBdB bfdB|cBAB ceec|d2dc defg|afec dBBA||

